icons/fold-down-24.svg

<svg xmlns="http://www.w3.org/2000/svg" width="24" height="24" viewBox="0 0 24 24"><path d="M12 19a.749.749 0 01-.53-.22l-3.25-3.25a.749.749 0 01.326-1.275.749.749 0 01.734.215L12 17.19l2.72-2.72a.749.749 0 011.275.326.749.749 0 01-.215.734l-3.25 3.25A.749.749 0 0112 19z"/><path d="M12 18a.75.75 0 01-.75-.75v-7.5a.75.75 0 011.5 0v7.5A.75.75 0 0112 18zM2.75 6a.75.75 0 01.75-.75h1a.75.75 0 010 1.5h-1A.75.75 0 012.75 6zm4 0a.75.75 0 01.75-.75h1a.75.75 0 010 1.5h-1A.75.75 0 016.75 6zm4 0a.75.75 0 01.75-.75h1a.75.75 0 010 1.5h-1a.75.75 0 01-.75-.75zm4 0a.75.75 0 01.75-.75h1a.75.75 0 010 1.5h-1a.75.75 0 01-.75-.75zm4 0a.75.75 0 01.75-.75h1a.75.75 0 010 1.5h-1a.75.75 0 01-.75-.75z"/></svg>

<svg xmlns="http://www.w3.org/2000/svg" width="24" height="24" viewBox="0 0 24 24">
  <defs/>
  <path d="M12,19 C11.801,19 11.611,18.921 11.47,18.78 L8.22,15.53 C8.019,15.343 7.937,15.061 8.005,14.796 C8.072,14.53 8.28,14.322 8.546,14.255 C8.811,14.187 9.093,14.269 9.28,14.47 L12,17.19 L14.72,14.47 C14.907,14.269 15.189,14.187 15.454,14.255 C15.72,14.322 15.928,14.53 15.995,14.796 C16.063,15.061 15.981,15.343 15.78,15.53 L12.53,18.78 C12.389,18.921 12.199,19 12,19 Z"/>
  <path d="M12,18 C11.586,18 11.25,17.664 11.25,17.25 L11.25,9.75 C11.25,9.336 11.586,9 12,9 C12.414,9 12.75,9.336 12.75,9.75 L12.75,17.25 C12.75,17.664 12.414,18 12,18 Z M2.75,6 C2.75,5.586 3.086,5.25 3.5,5.25 L4.5,5.25 C4.914,5.25 5.25,5.586 5.25,6 C5.25,6.414 4.914,6.75 4.5,6.75 L3.5,6.75 C3.086,6.75 2.75,6.414 2.75,6 Z M6.75,6 C6.75,5.586 7.086,5.25 7.5,5.25 L8.5,5.25 C8.914,5.25 9.25,5.586 9.25,6 C9.25,6.414 8.914,6.75 8.5,6.75 L7.5,6.75 C7.086,6.75 6.75,6.414 6.75,6 Z M10.75,6 C10.75,5.586 11.086,5.25 11.5,5.25 L12.5,5.25 C12.914,5.25 13.25,5.586 13.25,6 C13.25,6.414 12.914,6.75 12.5,6.75 L11.5,6.75 C11.086,6.75 10.75,6.414 10.75,6 Z M14.75,6 C14.75,5.586 15.086,5.25 15.5,5.25 L16.5,5.25 C16.914,5.25 17.25,5.586 17.25,6 C17.25,6.414 16.914,6.75 16.5,6.75 L15.5,6.75 C15.086,6.75 14.75,6.414 14.75,6 Z M18.75,6 C18.75,5.586 19.086,5.25 19.5,5.25 L20.5,5.25 C20.914,5.25 21.25,5.586 21.25,6 C21.25,6.414 20.914,6.75 20.5,6.75 L19.5,6.75 C19.086,6.75 18.75,6.414 18.75,6 Z"/>
</svg>
